X: 137017
T: GARRY OWEN
Q: "Irish Jig."
R: Jig.
%R: jig
B: James Kerr "Merry Melodies" v.1 p.37 s.0 #17
Z: 2016 John Chambers <jc:trillian.mit.edu>
M: 6/8
L: 1/8
K: A
vag |\
fed cBA | cdc cag | fed cBA | BcB Bag |\
fed cBA | cdc uc2ue | efg aec | BcB B :|
|: cd |\
ve2vc ue2uc | e2c eag | f2d f2d | f2d f2g |\
!1!a2b c'2b | a!2!gf e2e | efg aec | BcB B2 :|

%%sep 1 1 500
%%sep 1 1 500

